X:32
T:Quick March,A. RH.032
R:Quickstep
S:Rev.R.Harrison’s MS,c1815,Cumbria
O:England
A:Temple Sowerby,Cumbria
Z:vmp.Simon Wilson. Review PJH, 2008.
M:6/8
L:1/8
Q:3/8=120
K:D
A|d2d d2e|f2f f2g|aba g2f|e2e e2A|\
d2d d2e|f2f f2g|fgf ede|d2d d2:|!
|:f/g/|a2a b2c’|d’2a a2g|fga agf|e2e e2f/g/|\
a2a b2c’|d’2a a2g|fgf ede|d2d d2:|!
|:d|f3 ede|f3 ede|fdf a2a|agf e2f|\
g2e f2d|b2g a2g|fgf ede|d2d d2:|

